docs/images/icons/bitrix.svg

<svg width="50" height="50" viewBox="0 0 50 50" fill="none" xmlns="http://www.w3.org/2000/svg">
<g id="1c_bitrix_logo 1" clip-path="url(#clip0_49_58)">
<g id="layer1">
<path id="path821" d="M20.1747 49.7118C15.8014 48.8075 11.7205 46.7904 8.51689 43.9494C0.292326 36.6559 -2.24951 25.1982 2.09535 15.0034C3.16233 12.4998 4.89695 9.95908 7.04621 7.75174L8.94103 5.8057L9.07467 17.1957C9.20259 28.098 9.23142 28.6472 9.74791 30.0211C10.7812 32.7696 11.889 34.5195 13.796 36.4158C18.7221 41.3143 25.9477 42.5368 32.0901 39.511C37.8636 36.667 41.5034 30.483 41.0804 24.2366C40.7963 20.0408 39.3832 16.9641 36.3321 13.8986C34.025 11.5806 31.3106 10.0665 28.3555 9.44908C25.3488 8.82094 25.4931 8.72915 25.4931 11.2702V13.464L27.1414 13.7673C33.525 14.9417 37.7469 21.2007 36.4163 27.5173C35.9914 29.5347 35.0435 31.3162 33.5219 32.9573C31.2094 35.4512 27.9561 36.6432 25.1154 36.6378C20.4181 36.6287 16.4959 33.9636 14.5949 30.0223C14.5949 30.0223 14.0969 28.8958 13.9369 28.1997C12.9957 24.1058 13.5973 15.4879 13.5973 15.4879L13.5244 2.88705L14.2694 2.50238C14.6792 2.29081 15.0722 2.11771 15.1427 2.11771C15.2133 2.11771 15.3028 7.90527 15.3418 14.979C15.3418 14.979 14.4371 24.2516 15.5551 27.805C15.7164 28.3177 16.0226 29.1946 16.0226 29.1946C17.0027 31.1883 18.5734 32.9419 20.6143 33.9072C22.1636 34.6399 22.9436 34.9715 25.2356 34.9715C26.7332 34.9715 28.0598 34.4996 29.5863 33.7986C31.3858 32.9722 33.4501 30.7812 34.2129 28.7808C36.3146 23.2692 33.3881 17.3396 27.7503 15.6861C25.4461 15.0103 25.4931 14.9731 25.4931 17.4748V19.66L26.5991 19.9554C30.5859 21.0201 31.8024 26.3557 28.6727 29.0973C27.5669 30.0659 26.5705 30.4941 24.8275 30.4941C22.9651 30.4941 21.1773 29.3685 20.2583 27.6421C19.7062 26.6051 19.6596 25.6214 19.6596 25.1709C19.6596 21.0093 19.5693 13.525 19.5693 13.525L19.4947 0.686615L20.0671 0.544669C20.3819 0.466597 21.6543 0.273417 22.8946 0.115379C27.101 -0.420596 33.3242 0.95391 37.505 3.34237C43.2049 6.59866 47.5177 12.1925 49.3135 18.6581C49.9312 20.8821 50 21.5288 50 25.1064C50 28.6681 49.9296 29.3362 49.325 31.5115C46.8826 40.2991 40.6698 46.5809 31.7864 49.2452C29.9168 49.8059 29.041 49.9128 25.742 49.983C23.0797 50.0397 21.3542 49.9556 20.1747 49.7118Z" fill="#C60C30"/>
</g>
</g>
<defs>
<clipPath id="clip0_49_58">
<rect width="50" height="50" fill="white"/>
</clipPath>
</defs>
</svg>

<svg width="50" height="50" fill="none" xmlns="http://www.w3.org/2000/svg"><g clip-path="url(#a)"><path d="M20.175 49.712c-4.374-.905-8.455-2.922-11.658-5.763C.292 36.656-2.25 25.2 2.095 15.003 3.162 12.5 4.897 9.96 7.046 7.752l1.895-1.946.134 11.39c.128 10.902.156 11.451.673 12.825 1.033 2.749 2.141 4.498 4.048 6.395 4.926 4.898 12.152 6.12 18.294 3.095 5.774-2.844 9.413-9.028 8.99-15.274-.284-4.196-1.697-7.273-4.748-10.338-2.307-2.318-5.021-3.832-7.977-4.45-3.006-.628-2.862-.72-2.862 1.821v2.194l1.648.303c6.384 1.175 10.606 7.434 9.275 13.75-.425 2.018-1.372 3.8-2.894 5.44-2.313 2.494-5.566 3.686-8.407 3.68-4.697-.008-8.62-2.673-10.52-6.615 0 0-.498-1.126-.658-1.822-.941-4.094-.34-12.712-.34-12.712l-.073-12.6.745-.386c.41-.211.803-.384.874-.384.07 0 .16 5.787.199 12.861 0 0-.905 9.273.213 12.826.161.513.468 1.39.468 1.39.98 1.993 2.55 3.747 4.591 4.712 1.55.733 2.33 1.065 4.622 1.065 1.497 0 2.824-.472 4.35-1.173 1.8-.827 3.864-3.018 4.627-5.018 2.102-5.512-.825-11.441-6.463-13.095-2.304-.676-2.257-.713-2.257 1.789v2.185l1.106.295c3.987 1.065 5.203 6.4 2.074 9.142-1.106.969-2.102 1.397-3.845 1.397-1.863 0-3.65-1.125-4.57-2.852a5.259 5.259 0 0 1-.598-2.471c0-4.162-.09-11.646-.09-11.646L19.494.687l.572-.142c.315-.078 1.587-.272 2.828-.43 4.206-.536 10.43.839 14.61 3.227 5.7 3.257 10.013 8.85 11.808 15.316.618 2.224.687 2.87.687 6.448 0 3.562-.07 4.23-.675 6.405-2.442 8.788-8.655 15.07-17.539 17.734-1.87.56-2.745.668-6.044.738-2.662.057-4.388-.027-5.567-.271Z" fill="#C60C30"/></g><defs><clipPath id="a"><path fill="#fff" d="M0 0h50v50H0z"/></clipPath></defs></svg>
